simple/torbrowser.svg

<svg viewBox="0 0 24 24" xmlns="http://www.w3.org/2000/svg"><path d="M12 21.82v-1.46 0c4.61 0 8.36-3.75 8.36-8.36v0c0-4.62-3.75-8.36-8.36-8.36V2.18l-.001-.001c5.42 0 9.81 4.39 9.82 9.82v-.001c-.01 5.42-4.4 9.81-9.82 9.82Zm0-5.09v0c2.61-.01 4.72-2.12 4.73-4.73h0c-.01-2.62-2.12-4.73-4.73-4.73V5.82v0c3.4-.01 6.17 2.75 6.18 6.15 0 0 0 .01 0 .02v0c0 3.4-2.76 6.17-6.16 6.18 -.01 0-.02 0-.03 0Zm0-7.27h-.001c1.4-.01 2.54 1.12 2.54 2.52 0 0 0 0 0 .01v0c0 1.4-1.14 2.54-2.54 2.54 -.01 0-.01-.01-.02-.01ZM0 12v0c0 6.62 5.37 12 12 12v0c6.62 0 12-5.38 12-12v0c0-6.63-5.38-12-12-12v0C5.37 0 0 5.37 0 12Z"/></svg>

<svg role="img" viewBox="0 0 24 24" xmlns="http://www.w3.org/2000/svg"><title>Tor Browser</title><path d="M12 21.82v-1.46A8.36 8.36 0 0020.36 12 8.36 8.36 0 0012 3.64V2.18A9.83 9.83 0 0121.82 12 9.83 9.83 0 0112 21.82zm0-5.09A4.74 4.74 0 0016.73 12 4.74 4.74 0 0012 7.27V5.82A6.17 6.17 0 0118.18 12 6.17 6.17 0 0112 18.18zm0-7.27A2.54 2.54 0 0114.55 12 2.54 2.54 0 0112 14.54zM0 12a12 12 0 0012 12 12 12 0 0012-12A12 12 0 0012 0 12 12 0 000 12z"/></svg>
